public/library/ottersec-icon-light.svg

<svg width="500" height="500" viewBox="0 0 500 500" fill="none" xmlns="http://www.w3.org/2000/svg">
<path d="M442.739 395.192C419.452 419.404 391.02 438.481 359.391 451.118C286.572 479.648 220.583 463.18 196.939 455.861C176.352 449.487 138.882 437.413 106.159 403.304C77.5285 373.454 67.3194 342.189 62.7106 327.515C45.4356 272.572 56.1324 224.811 62.8652 202.481C62.8652 202.981 62.5296 206.82 62.2357 213.115C61.2446 234.852 59.6243 280.818 82.7241 325.587C90.3491 340.37 107.136 367.565 141.773 391.822C167.14 410.861 196.752 423.939 228.265 430.02C259.778 436.102 292.326 435.02 323.331 426.861C346.235 421.335 386.052 408.344 421.791 376.324C436.352 363.183 449.033 348.228 459.5 331.854C466.733 320.559 476.985 304.294 483.241 280.644C487.124 265.955 492.096 246.185 486.033 222.696C484.12 215.27 480.574 202.198 469.276 190.352C463.13 183.925 457.139 180.407 451.119 176.877C437.88 169.114 426.526 165.961 412.015 162.053C398.719 158.478 385.187 155.776 371.513 153.967L362.687 153.078C370.867 166.246 377.124 180.44 381.289 195.257C385.891 211.535 387.87 228.398 387.156 245.255C386.652 255.887 386.107 267.559 380.744 281.52C372.463 303.081 358.078 316.046 349.056 323.983C332.074 338.709 311.735 349.365 289.687 355.087C278.696 357.848 267.23 360.005 267.23 360.005C273.296 360.074 279.361 359.755 285.385 359.048C291.67 358.361 296.181 357.876 302.144 356.704C309.776 355.102 317.287 353.007 324.63 350.437C334.224 347 359.865 337.567 378.454 317.865C392.783 302.663 398.663 287.422 403.161 275.254C403.161 275.254 419.081 232.13 401.763 179.572C409.969 190.843 416.665 203.067 421.693 215.957C426.783 230.718 429.146 246.228 428.676 261.778C427.704 283.522 421.489 304.748 410.52 323.767C398.765 343.613 382.537 360.654 363.035 373.63C319.811 402.63 274.967 402.28 263.878 401.93C249.198 401.457 207.943 399.572 170.5 370.085C119.622 330.007 116.48 271.561 116.145 262.154C115.754 251.507 114.622 179.477 175.822 139.521C226.685 106.315 284.226 120.951 292.885 123.349L275.72 160.422L281.043 165.516L304.072 123.121C301.715 137.243 299.35 151.376 296.978 165.516L304.072 162.121L313.556 126.112C318.415 127.688 344.181 135.545 366.15 123.121C378.048 115.55 387.73 105.155 394.263 92.9335C394.263 92.8394 395.661 90.3185 397.476 86.9226C398.37 85.2787 399.583 82.9607 401.024 80.185C395.059 78.3115 390.311 76.9372 386.972 75.9935C385.2 75.4953 383.133 74.9292 379.25 73.8239L371.233 71.5335C370.061 70.8861 368.231 69.8483 366.024 68.5142C345.535 56.1698 343.748 49.3379 328.917 40.093C319.024 34.0968 308.28 29.5246 297.019 26.5224C288.031 23.793 278.789 21.928 269.422 20.9567C269.422 20.9567 264.506 20.3637 260.259 20C253.081 19.3665 238.709 19.4474 220.219 20.795C217.77 13.8885 212.854 8.04807 206.352 4.31796C199.848 0.58794 192.183 -0.788372 184.724 0.435077C177.267 1.65853 170.502 5.40198 165.642 10.996C160.782 16.5901 158.143 23.6702 158.196 30.9696C130.854 42.0226 105.681 57.5207 83.7722 76.789C8.84415 142.876 1.28853 229.865 0.492481 241.226C-0.582916 256.48 -4.67489 336.287 53.647 407.387C133.77 505.024 268.193 508.891 330.648 492.759C351.087 487.226 370.731 479.254 389.124 469.028C415.55 453.2 438.443 432.452 456.469 407.994C464.043 397.091 470.661 385.594 476.257 373.63C481.059 363.539 485.256 353.189 488.828 342.633C492.163 333.205 494.859 323.576 496.9 313.809C498.319 307.307 499.354 300.733 500 294.12C500 294.12 480.224 356.38 442.739 395.192Z" fill="#0F0D12"/>
</svg>

<svg xmlns="http://www.w3.org/2000/svg" width="500" height="500" fill="none" viewBox="0 0 500 500"><path fill="#0f0d12" d="M442.739 395.192c-23.287 24.212-51.719 43.289-83.348 55.926-72.819 28.53-138.808 12.062-162.452 4.743-20.587-6.374-58.057-18.448-90.78-52.557-28.63-29.85-38.84-61.115-43.448-75.789-17.275-54.943-6.579-102.704.154-125.034 0 .5-.335 4.339-.63 10.634-.99 21.737-2.61 67.703 20.49 112.472 7.624 14.783 24.411 41.978 59.048 66.235 25.367 19.039 54.979 32.117 86.492 38.198a214.3 214.3 0 0 0 95.066-3.159c22.904-5.526 62.721-18.517 98.46-50.537 14.561-13.141 27.242-28.096 37.709-44.47 7.233-11.295 17.485-27.56 23.741-51.21 3.883-14.689 8.855-34.459 2.792-57.948-1.913-7.426-5.459-20.498-16.757-32.344-6.146-6.427-12.137-9.945-18.157-13.475-13.239-7.763-24.593-10.916-39.104-14.824a315 315 0 0 0-40.502-8.086l-8.826-.889a164 164 0 0 1 18.602 42.179 159 159 0 0 1 5.867 49.998c-.504 10.632-1.049 22.304-6.412 36.265-8.281 21.561-22.666 34.526-31.688 42.463-16.982 14.726-37.321 25.382-59.369 31.104-10.991 2.761-22.457 4.918-22.457 4.918 6.066.069 12.131-.25 18.155-.957 6.285-.687 10.796-1.172 16.759-2.344a180 180 0 0 0 22.486-6.267c9.594-3.437 35.235-12.87 53.824-32.572 14.329-15.202 20.209-30.443 24.707-42.611 0 0 15.92-43.124-1.398-95.682a161.6 161.6 0 0 1 19.93 36.385 128.6 128.6 0 0 1 6.983 45.821c-.972 21.744-7.187 42.97-18.156 61.989-11.755 19.846-27.983 36.887-47.485 49.863-43.224 29-88.068 28.65-99.157 28.3-14.68-.473-55.935-2.358-93.378-31.845-50.878-40.078-54.02-98.524-54.355-107.931-.391-10.647-1.523-82.677 59.677-122.633 50.863-33.206 108.404-18.57 117.063-16.172l-17.165 37.073 5.323 5.094 23.029-42.395a52089 52089 0 0 1-7.094 42.395l7.094-3.395 9.484-36.009c4.859 1.576 30.625 9.433 52.594-2.991 11.898-7.571 21.58-17.966 28.113-30.187 0-.095 1.398-2.615 3.213-6.011a439 439 0 0 0 3.548-6.738 500 500 0 0 0-14.052-4.192c-1.772-.498-3.839-1.064-7.722-2.17l-8.017-2.29a157 157 0 0 1-5.209-3.019c-20.489-12.344-22.276-19.176-37.107-28.421a122.3 122.3 0 0 0-31.898-13.57 147.3 147.3 0 0 0-27.597-5.566s-4.916-.593-9.163-.957c-7.178-.634-21.55-.553-40.04.795-2.449-6.907-7.365-12.747-13.867-16.477-6.504-3.73-14.169-5.106-21.628-3.883-7.457 1.224-14.222 4.967-19.082 10.561s-7.499 12.674-7.446 19.974c-27.342 11.053-52.515 26.55-74.424 45.819C8.844 142.876 1.29 229.865.492 241.226c-1.075 15.254-5.167 95.061 53.155 166.161 80.123 97.637 214.546 101.504 277.001 85.372a260.4 260.4 0 0 0 58.476-23.731c26.426-15.828 49.319-36.576 67.345-61.034a234 234 0 0 0 19.788-34.364 284 284 0 0 0 12.571-30.997 223.6 223.6 0 0 0 8.072-28.824 170 170 0 0 0 3.1-19.689s-19.776 62.26-57.261 101.072"/></svg>
